src/icons/SVG/32px/Service_Delivery_Delivery--Locker_32px.svg

<svg width="32" height="32" viewBox="0 0 32 32" fill="none" xmlns="http://www.w3.org/2000/svg">
  <g id="Square"> </g>
  <g id="Icon">
<path id="Union" fill-rule="evenodd" clip-rule="evenodd" d="M5 5H10V9H5V5ZM11 9V5H21V9V10V14V15V19H11V15V14V10V9ZM21 20H11V27H21V20ZM22 27V20H27V27H22ZM22 19V15H27V19H22ZM22 14H27V10H22V14ZM22 9H27V5H22V9ZM10 15V19H5V15H10ZM10 10V14H5V10H10ZM10 27V20H5L5 27H10ZM3 5C3 3.89543 3.89543 3 5 3H27C28.1046 3 29 3.89543 29 5V27C29 28.1046 28.1046 29 27 29H5C3.89543 29 3 28.1046 3 27V5ZM18 10H14V14H18V10ZM14 9C13.4477 9 13 9.44772 13 10V14V15C13 15.5523 13.4477 16 14 16H18C18.5523 16 19 15.5523 19 15V14V10C19 9.44772 18.5523 9 18 9H14Z" fill="black"/>
</g>
</svg>

<svg xmlns="http://www.w3.org/2000/svg" viewBox="0 0 32 32">
  <g id="Square"> </g>
  <path fill-rule="evenodd" d="M5 5h5v4H5V5zm6 4V5h10v14H11V9zm10 11H11v7h10v-7zm1 7v-7h5v7h-5zm0-8v-4h5v4h-5zm0-5h5v-4h-5v4zm0-5h5V5h-5v4zm-12 6v4H5v-4h5zm0-5v4H5v-4h5zm0 17v-7H5v7h5zM3 5a2 2 0 012-2h22a2 2 0 012 2v22a2 2 0 01-2 2H5a2 2 0 01-2-2V5zm15 5h-4v4h4v-4zm-4-1a1 1 0 00-1 1v5a1 1 0 001 1h4a1 1 0 001-1v-5a1 1 0 00-1-1h-4z"/>
</svg>
